X: 22044
T: Knitting, The
R: reel
M: 4/4
K: Ddorian
|:D2 DC DA,CD|FE2 D2 A,CD|FEFG FGAF|EDEF GECA,|
D2 DC DA,CD|FE2 D2 A,CD|FEFG FGAF|EDCA, D4:|
|:D d2 c2 A c2|dccA BAGE|FED F2 EFG|AFGE FDEC|
D d2 c2 A c2|dccA BAGE|FED F2 EFG|AFGE D4:|

